assets/color/windy.svg

<?xml version="1.0" encoding="UTF-8"?>
<svg version="1.1" viewBox="0 0 48 48" xmlns="http://www.w3.org/2000/svg">
<rect width="48" height="48" data-bg="1"/>
<path d="m24 8v4h2c1.1 0 2 0.9 2 2s-0.9 2-2 2h-21v4h21c3.31 0 6-2.69 6-6s-2.69-6-6-6h-2zm-19 14v4h32c1.1 0 2 0.9 2 2s-0.9 2-2 2h-2v4h2c3.31 0 6-2.69 6-6s-2.69-6-6-6h-32zm0 6v4h13c1.1 0 2 0.9 2 2s-0.9 2-2 2h-2v4h2c3.31 0 6-2.69 6-6s-2.69-6-6-6h-13z" fill="#919191"/>
</svg>

<?xml version="1.0" encoding="UTF-8" standalone="no"?>
<svg
   fill="none"
   viewBox="0 0 48 48"
   version="1.1"
   id="svg2"
   sodipodi:docname="windy.svg"
   inkscape:version="1.4.3 (1:1.4.3+202512261035+0d15f75042)"
   xmlns:inkscape="http://www.inkscape.org/namespaces/inkscape"
   xmlns:sodipodi="http://sodipodi.sourceforge.net/DTD/sodipodi-0.dtd"
   xmlns="http://www.w3.org/2000/svg"
   xmlns:svg="http://www.w3.org/2000/svg">
  <defs
     id="defs2" />
  <sodipodi:namedview
     id="namedview2"
     pagecolor="#ffffff"
     bordercolor="#666666"
     borderopacity="1.0"
     inkscape:showpageshadow="2"
     inkscape:pageopacity="0.0"
     inkscape:pagecheckerboard="0"
     inkscape:deskcolor="#d1d1d1"
     inkscape:zoom="16.625"
     inkscape:cx="24.030075"
     inkscape:cy="24.030075"
     inkscape:window-width="1920"
     inkscape:window-height="1011"
     inkscape:window-x="0"
     inkscape:window-y="32"
     inkscape:window-maximized="1"
     inkscape:current-layer="svg2" />
  <rect
     x="0.0"
     y="0.0"
     width="48.0"
     height="48.0"
     fill="#ff0000"
     stroke="none"
     data-bg="1"
     id="rect1"
     style="fill:#000000;fill-opacity:1" />
  <path
     id="path1"
     style="stroke:none;fill:#919191;fill-opacity:1"
     d="M 24 8 L 24 12 L 26 12 C 27.1 12 28 12.9 28 14 C 28 15.1 27.1 16 26 16 L 5 16 L 5 20 L 26 20 C 29.31 20 32 17.31 32 14 C 32 10.69 29.31 8 26 8 L 24 8 z M 5 22 L 5 26 L 37 26 C 38.1 26 39 26.9 39 28 C 39 29.1 38.1 30 37 30 L 35 30 L 35 34 L 37 34 C 40.31 34 43 31.31 43 28 C 43 24.69 40.31 22 37 22 L 5 22 z M 5 28 L 5 32 L 18 32 C 19.1 32 20 32.9 20 34 C 20 35.1 19.1 36 18 36 L 16 36 L 16 40 L 18 40 C 21.31 40 24 37.31 24 34 C 24 30.69 21.31 28 18 28 L 5 28 z " />
</svg>
